X: 1564
T: Devils Dream, The
R:hornpipe
B:O'Neill's 1564
Z:Transcribed by Michael Hogan
N:Bar 21 should probably be |cAEA cAeA|.
M:C|
L:1/8
K:A
e2 | eaga eaga | eaga fedc | dfBf dfBf | dfBf gfed |
eaga eaga | eaga fedc | dfed cABG | E2 A2 A2 :|
|: e2 | ceAe ceAe | ceAe fedc | dfBf dfBf | dfBf afed |
ceAe ceAe | ceAe fedc | dfed cABG | E2 A2 A2 :|
|: e2 | cAEA cAeA | cAeA fedc | dBGB dBfe | defg agfe |
cAFA cAeA | cAce fedc | dfed cABG | E2 A2 A2 :|


